!! 00000] TT[WS
!!!OTL: Junmin hezuo
!!!ARE: Asia, China, Shanxi Hequ
!! Ethnic Group: Han
!! WII, 225 (1)
!!!SCT: J0734
!!!YEM: Copyright 1995, estate of Helmut Schaffrath.
**kern
*ICvox
*Ivox
*M2/4
*k[b-]
*F:
{8cc
8cc
8a
8cc
=1
8ff
8ff
8dd
8ff
=2
8dd
8cc
8b-
8cc
=3
2g
=4
4g
8d
8f
=5
4g
8a
8cc
=6
2g}
=7
{4ff
8dd
8ff
=8
8dd
8cc
8b-
8cc
=9
4g
8g
8d
=10
2c
=11
8g
8g
4c
=12
8g
8g
4c}
=13
{8cc
8ff
8dd
8cc
=14
8cc
8dd
4f
=15
4g
8f
8d
=16
4c
8d
8f
=17
2c}
==
!!!AGN: Xiaodiao. XÅshi, Xinminge
!!!ONB: ESAC (Essen Associative Code) Database: CHINA
!!!AMT: simple duple
!!!AIN: vox
!!!EED: Helmut Schaffrath
!!!EEV: 1.0
*-
